public/assets/solarcar.svg

<svg width="124" height="126" viewBox="0 0 124 126" fill="none" xmlns="http://www.w3.org/2000/svg">
<path d="M58.3802 15.1742C62.7246 8.95331 60.2931 0.733887 60.2931 0.733887C60.2931 0.733887 51.7812 1.2355 47.4447 7.44846C42.6722 14.3052 44.8365 21.707 45.0879 22.5325C45.9403 22.497 53.5959 22.0191 58.3802 15.1742Z" fill="white"/>
<path d="M42.2245 19.325C44.1885 11.9904 39.1096 5.10596 39.1096 5.10596C39.1096 5.10596 31.2811 8.50669 29.325 15.8453C27.1724 23.9344 31.721 30.1355 32.2356 30.8267C33.0251 30.487 40.0602 27.4062 42.2245 19.325Z" fill="white"/>
<path d="M22.9812 43.0278C23.6058 42.4393 29.1678 37.1032 28.4568 28.7851C27.8087 21.2173 20.6912 16.4895 20.6912 16.4895C20.6912 16.4895 14.4889 22.3786 15.1488 29.9463C15.8755 38.2842 22.2624 42.5539 22.9812 43.0278Z" fill="white"/>
<path d="M18.4169 57.6776C18.8097 56.9074 22.2231 49.9992 18.7194 42.4118C15.5338 35.5195 7.24181 33.5288 7.24181 33.5288C7.24181 33.5288 3.41595 41.1913 6.6094 48.0797C10.1446 55.6632 17.5999 57.4801 18.4169 57.6776Z" fill="white"/>
<path d="M19.1436 73.0064C19.2457 72.1493 20.1099 64.4829 14.2336 58.5583C8.89943 53.1629 0.426765 54.1582 0.426765 54.1582C0.426765 54.1582 -0.55916 62.6739 4.7829 68.0455C10.667 73.9623 18.2912 73.1091 19.1436 73.0064Z" fill="white"/>
<path d="M25.0238 87.1662C24.8313 86.3407 23.0323 78.8362 15.4984 75.2815C8.65195 72.0624 1.0238 75.8937 1.0238 75.8937C1.0238 75.8937 2.98779 84.2395 9.84605 87.4506C17.3878 90.9817 24.2618 87.5533 25.0238 87.1662Z" fill="white"/>
<path d="M35.3701 98.4506C34.8987 97.7278 30.6565 91.2977 22.3724 90.5512C14.8424 89.8955 8.98975 96.1084 8.98975 96.1084C8.98975 96.1084 13.6758 103.269 21.2058 103.933C29.486 104.664 34.7809 99.0787 35.3701 98.4506Z" fill="white"/>
<path d="M48.9255 105.496C48.2381 104.979 42.0673 100.393 34.0267 102.546C26.7246 104.521 23.3347 112.373 23.3347 112.373C23.3347 112.373 30.1773 117.508 37.4755 115.533C45.52 113.356 48.5877 106.286 48.9255 105.496Z" fill="white"/>
<path d="M49.0552 109.81C42.8608 114.154 42.3462 122.717 42.3462 122.717C42.3462 122.717 50.5164 125.174 56.7069 120.814C63.5298 116.015 64.013 108.317 64.0601 107.456C63.2431 107.203 55.882 105.019 49.0552 109.81Z" fill="white"/>
<path d="M65.6548 111.461C61.3105 117.678 63.7419 125.897 63.7419 125.897C63.7419 125.897 72.2538 125.396 76.5903 119.183C81.3628 112.33 79.1985 104.928 78.9471 104.103C78.0948 104.138 70.4391 104.612 65.6548 111.461Z" fill="white"/>
<path d="M81.8107 107.306C79.8467 114.644 84.9256 121.525 84.9256 121.525C84.9256 121.525 92.754 118.124 94.7102 110.781C96.8627 102.7 92.3141 96.4913 91.7995 95.8C91.01 96.1437 83.975 99.2284 81.8107 107.306Z" fill="white"/>
<path d="M88.284 89.7336C95.1815 88.5487 99.4434 82.0751 99.4434 82.0751C98.3101 80.9418 97.0485 79.9463 95.6843 79.1088C101.765 75.6212 103.564 68.0732 103.564 68.0732C102.114 67.4028 100.592 66.9057 99.027 66.5921C103.552 61.2244 102.676 53.5145 102.676 53.5145C101.085 53.3777 99.483 53.4294 97.9036 53.6685C100.331 47.0685 96.8863 40.1209 96.8863 40.1209C95.3438 40.5414 93.8554 41.1419 92.4516 41.9101C92.487 34.8717 86.8896 29.5277 86.8896 29.5277C85.5826 30.453 84.3882 31.5294 83.3308 32.7348C80.974 26.1072 73.9037 23.0145 73.9037 23.0145C72.9897 24.3336 72.233 25.756 71.649 27.2526C67.1789 21.8375 59.4722 21.3635 59.4722 21.3635C59.0651 22.9117 58.8384 24.5023 58.7966 26.1032C52.7515 22.5484 45.3511 24.7564 45.3511 24.7564C45.4852 26.3578 45.8055 27.938 46.3056 29.4645C39.4199 28.2045 33.2137 32.8217 33.2137 32.8217C33.8931 34.276 34.7395 35.6453 35.7354 36.9018C28.8379 38.0868 24.576 44.5643 24.576 44.5643C25.7104 45.6963 26.9719 46.6918 28.3351 47.5306C22.2546 51.0182 20.4556 58.5662 20.4556 58.5662C21.9101 59.2394 23.438 59.7391 25.0081 60.0552C20.4831 65.4229 21.359 73.1368 21.359 73.1368C22.9505 73.2733 24.5524 73.2203 26.1315 72.9788C23.704 79.5828 27.1489 86.5265 27.1489 86.5265C28.6921 86.1081 30.1807 85.5075 31.5835 84.7372C31.5482 91.7796 37.1456 97.1197 37.1456 97.1197C38.4525 96.1943 39.647 95.1179 40.7043 93.9125C43.0611 100.54 50.1315 103.633 50.1315 103.633C51.0451 102.315 51.8019 100.894 52.3862 99.3987C56.8562 104.814 64.5629 105.288 64.5629 105.288C64.9696 103.739 65.1963 102.149 65.2385 100.548C71.2837 104.103 78.684 101.891 78.684 101.891C78.5507 100.287 78.2304 98.7039 77.7295 97.175C84.6153 98.431 90.8215 93.8137 90.8215 93.8137C90.1371 92.3587 89.2854 90.9893 88.284 89.7336ZM57.9992 86.3171C55.7018 84.853 53.1149 83.9095 50.4182 83.5523C48.758 81.3839 46.6483 79.6048 44.2356 78.3386C43.4122 75.7364 42.0357 73.3455 40.2015 71.3318C40.3152 68.5947 39.8354 65.8655 38.7953 63.3335C39.8298 60.803 40.3056 58.0767 40.1898 55.3432C42.0252 53.3241 43.3994 50.9259 44.2159 48.3166C46.6261 47.0499 48.7332 45.2708 50.3907 43.1029C53.0856 42.7434 55.6708 41.8001 57.9678 40.3381C60.6256 40.9242 63.3781 40.9242 66.0359 40.3381C68.3341 41.8005 70.9207 42.7438 73.6169 43.1029C75.2779 45.2644 77.3879 47.0356 79.7996 48.2929C80.6215 50.9004 81.9981 53.2967 83.8336 55.3155C83.7217 58.0487 84.2015 60.7736 85.2398 63.3019C84.2051 65.8311 83.7294 68.5561 83.8454 71.2883C82.0107 73.3079 80.6366 75.7059 79.8192 78.3149C77.4087 79.5828 75.3016 81.3632 73.6444 83.5325C70.9486 83.8884 68.3627 84.832 66.0673 86.2974C63.4086 85.7136 60.6551 85.7203 57.9992 86.3171Z" fill="white"/>
<path d="M101.054 83.6074C100.429 84.1959 94.8673 89.5004 95.5783 97.8463C96.2264 105.418 103.344 110.142 103.344 110.142C103.344 110.142 109.542 104.257 108.886 96.685C108.16 88.3511 101.773 84.0774 101.054 83.6074Z" fill="white"/>
<path d="M105.618 68.9617C105.225 69.7279 101.812 76.636 105.316 84.2235C108.501 91.1158 116.793 93.1104 116.793 93.1104C116.793 93.1104 120.619 85.444 117.426 78.5596C113.89 70.9721 106.435 69.1552 105.618 68.9617Z" fill="white"/>
<path d="M119.252 58.5856C113.36 52.661 105.744 53.526 104.892 53.6287C104.789 54.4818 103.925 62.1483 109.802 68.0729C115.136 73.4564 123.608 72.4768 123.608 72.4768C123.608 72.4768 124.594 63.9572 119.252 58.5856Z" fill="white"/>
<path d="M99.0113 39.4691C99.2038 40.3064 101.003 47.807 108.537 51.3539C115.383 54.5768 123.011 50.7416 123.011 50.7416C123.011 50.7416 121.047 42.3998 114.189 39.1886C106.647 35.6497 99.7733 39.078 99.0113 39.4691Z" fill="white"/>
<path d="M88.665 28.1846C89.1364 28.9074 93.3786 35.3376 101.663 36.0841C109.193 36.7516 115.045 30.5228 115.045 30.5228C115.045 30.5228 110.359 23.3619 102.829 22.6984C94.5492 21.9598 89.2542 27.5566 88.665 28.1846Z" fill="white"/>
<path d="M75.1096 21.1381C75.797 21.6555 81.9678 26.2372 90.0084 24.0846C97.3105 22.1295 100.7 14.2616 100.7 14.2616C100.7 14.2616 93.8578 9.12689 86.5596 11.1018C78.5151 13.2702 75.4474 20.3442 75.1096 21.1381Z" fill="white"/>
<path d="M74.9799 16.825C81.1744 12.4803 81.6889 3.91725 81.6889 3.91725C81.6889 3.91725 73.5187 1.46051 67.3282 5.81708C60.5053 10.62 60.0222 18.318 59.975 19.1949C60.796 19.4279 68.1531 21.6161 74.9799 16.825Z" fill="white"/>
<path d="M62.0176 34.5991C54.5169 34.5991 47.3233 37.5953 42.0195 42.9285C36.7157 48.2617 33.7361 55.495 33.7361 63.0373C33.7361 70.5796 36.7157 77.8129 42.0195 83.1461C47.3233 88.4793 54.5169 91.4755 62.0176 91.4755C69.5183 91.4755 76.7118 88.4793 82.0156 83.1461C87.3194 77.8129 90.2991 70.5796 90.2991 63.0373C90.2991 55.495 87.3194 48.2617 82.0156 42.9285C76.7118 37.5953 69.5183 34.5991 62.0176 34.5991ZM62.0176 77.3235C58.2498 77.3225 54.6367 75.817 51.9725 73.138C49.3083 70.4591 47.8111 66.8259 47.8101 63.0373C47.8101 59.2484 49.3069 55.6146 51.9713 52.9354C54.6358 50.2562 58.2495 48.7511 62.0176 48.7511C65.7856 48.7511 69.3994 50.2562 72.0638 52.9354C74.7282 55.6146 76.2251 59.2484 76.2251 63.0373C76.2241 66.8259 74.7269 70.4591 72.0627 73.138C69.3985 75.817 65.7853 77.3225 62.0176 77.3235Z" fill="white"/>
<path d="M62.0175 50.8208C60.4222 50.8208 58.8426 51.1368 57.3688 51.7508C55.895 52.3648 54.5559 53.2647 53.4281 54.3992C52.3002 55.5337 51.4057 56.8804 50.7956 58.3626C50.1854 59.8447 49.8717 61.4333 49.8722 63.0374C49.8722 66.2764 51.1518 69.3827 53.4295 71.673C55.7072 73.9633 58.7964 75.25 62.0175 75.25C65.2387 75.25 68.3279 73.9633 70.6056 71.673C72.8833 69.3827 74.1629 66.2764 74.1629 63.0374C74.1634 61.4333 73.8496 59.8447 73.2395 58.3626C72.6293 56.8804 71.7348 55.5337 70.607 54.3992C69.4791 53.2647 68.14 52.3648 66.6662 51.7508C65.1925 51.1368 63.6128 50.8208 62.0175 50.8208ZM62.0175 71.5214C59.7798 71.5214 57.6337 70.6276 56.0514 69.0365C54.4691 67.4454 53.5802 65.2875 53.5802 63.0374C53.5797 61.9231 53.7976 60.8196 54.2214 59.79C54.6452 58.7605 55.2667 57.825 56.0503 57.0371C56.8339 56.2492 57.7642 55.6242 58.7881 55.1981C59.812 54.7719 60.9094 54.5528 62.0175 54.5533C64.2552 54.5533 66.4013 55.4472 67.9836 57.0382C69.5659 58.6293 70.4548 60.7873 70.4548 63.0374C70.4548 65.2875 69.5659 67.4454 67.9836 69.0365C66.4013 70.6276 64.2552 71.5214 62.0175 71.5214Z" fill="white"/>
</svg>

<svg width="124" height="126" fill="none" xmlns="http://www.w3.org/2000/svg"><path d="M58.38 15.174c4.345-6.22 1.913-14.44 1.913-14.44s-8.512.502-12.848 6.714c-4.773 6.857-2.608 14.259-2.357 15.084.852-.035 8.508-.513 13.292-7.358ZM42.224 19.325C44.19 11.99 39.11 5.106 39.11 5.106s-7.829 3.4-9.785 10.74c-2.153 8.088 2.396 14.29 2.91 14.98.79-.339 7.825-3.42 9.99-11.501ZM22.981 43.028c.625-.589 6.187-5.925 5.476-14.243-.648-7.568-7.766-12.296-7.766-12.296s-6.202 5.89-5.542 13.457c.727 8.338 7.113 12.608 7.832 13.082ZM18.417 57.678c.393-.77 3.806-7.679.302-15.266-3.185-6.892-11.477-8.883-11.477-8.883s-3.826 7.662-.633 14.55c3.536 7.584 10.99 9.401 11.808 9.599ZM19.144 73.006c.102-.857.966-8.523-4.91-14.448-5.335-5.395-13.807-4.4-13.807-4.4s-.986 8.516 4.356 13.888c5.884 5.916 13.508 5.063 14.36 4.96ZM25.024 87.166c-.193-.825-1.992-8.33-9.526-11.885-6.846-3.219-14.474.613-14.474.613S2.988 84.24 9.846 87.45c7.542 3.53 14.416.102 15.178-.285ZM35.37 98.45c-.471-.722-4.713-7.152-12.998-7.899-7.53-.656-13.382 5.557-13.382 5.557s4.686 7.161 12.216 7.825c8.28.731 13.575-4.854 14.164-5.482ZM48.925 105.496c-.687-.517-6.858-5.103-14.898-2.95-7.302 1.975-10.692 9.827-10.692 9.827s6.842 5.135 14.14 3.16c8.045-2.177 11.113-9.247 11.45-10.037ZM49.055 109.81c-6.194 4.344-6.709 12.907-6.709 12.907s8.17 2.457 14.36-1.903c6.824-4.799 7.307-12.497 7.354-13.358-.817-.253-8.178-2.437-15.005 2.354ZM65.655 111.461c-4.345 6.217-1.913 14.436-1.913 14.436s8.512-.501 12.848-6.714c4.773-6.853 2.608-14.255 2.357-15.08-.852.035-8.508.509-13.292 7.358ZM81.81 107.306c-1.963 7.338 3.116 14.219 3.116 14.219s7.828-3.401 9.784-10.744c2.153-8.081-2.396-14.29-2.91-14.981-.79.344-7.825 3.428-9.99 11.506ZM88.284 89.734c6.897-1.185 11.16-7.659 11.16-7.659a20.44 20.44 0 0 0-3.76-2.966c6.081-3.488 7.88-11.036 7.88-11.036a20.324 20.324 0 0 0-4.537-1.48c4.525-5.369 3.649-13.079 3.649-13.079a20.279 20.279 0 0 0-4.772.154c2.427-6.6-1.018-13.547-1.018-13.547a20.433 20.433 0 0 0-4.434 1.79c.035-7.04-5.562-12.383-5.562-12.383a20.462 20.462 0 0 0-3.56 3.207c-2.356-6.628-9.426-9.72-9.426-9.72a20.571 20.571 0 0 0-2.255 4.238c-4.47-5.416-12.177-5.89-12.177-5.89a20.77 20.77 0 0 0-.675 4.74c-6.045-3.555-13.446-1.347-13.446-1.347a20.66 20.66 0 0 0 .955 4.709c-6.886-1.26-13.092 3.357-13.092 3.357a20.617 20.617 0 0 0 2.521 4.08c-6.897 1.185-11.159 7.662-11.159 7.662a20.621 20.621 0 0 0 3.76 2.967c-6.081 3.487-7.88 11.035-7.88 11.035a20.445 20.445 0 0 0 4.552 1.49c-4.525 5.367-3.649 13.08-3.649 13.08 1.591.137 3.193.084 4.772-.157-2.427 6.604 1.018 13.547 1.018 13.547a20.19 20.19 0 0 0 4.434-1.789c-.035 7.043 5.563 12.383 5.563 12.383a20.466 20.466 0 0 0 3.558-3.208c2.357 6.628 9.428 9.721 9.428 9.721a20.581 20.581 0 0 0 2.254-4.234c4.47 5.415 12.177 5.889 12.177 5.889.407-1.549.633-3.139.675-4.74 6.046 3.555 13.446 1.343 13.446 1.343a20.64 20.64 0 0 0-.954-4.716c6.885 1.256 13.091-3.361 13.091-3.361a20.622 20.622 0 0 0-2.537-4.08Zm-30.285-3.417a18.666 18.666 0 0 0-7.58-2.765 18.778 18.778 0 0 0-6.183-5.213 18.849 18.849 0 0 0-4.034-7.007 18.979 18.979 0 0 0-1.407-7.998 18.993 18.993 0 0 0 1.395-7.99 18.787 18.787 0 0 0 4.026-7.027 18.761 18.761 0 0 0 6.175-5.214 18.721 18.721 0 0 0 7.577-2.765 18.73 18.73 0 0 0 8.068 0 18.726 18.726 0 0 0 7.58 2.765 18.703 18.703 0 0 0 6.184 5.19 18.872 18.872 0 0 0 4.034 7.023 18.981 18.981 0 0 0 1.406 7.986 18.97 18.97 0 0 0-1.395 7.986 18.815 18.815 0 0 0-4.026 7.027 18.764 18.764 0 0 0-6.175 5.218 18.606 18.606 0 0 0-7.577 2.764 18.6 18.6 0 0 0-8.068.02ZM101.054 83.607c-.625.589-6.187 5.893-5.476 14.24.648 7.571 7.766 12.295 7.766 12.295s6.198-5.885 5.542-13.457c-.726-8.334-7.113-12.608-7.832-13.078ZM105.618 68.962c-.393.766-3.806 7.674-.302 15.261 3.185 6.893 11.477 8.887 11.477 8.887s3.826-7.666.633-14.55c-3.536-7.588-10.991-9.405-11.808-9.598ZM119.252 58.586c-5.892-5.925-13.508-5.06-14.36-4.957-.103.853-.967 8.52 4.91 14.444 5.334 5.383 13.806 4.404 13.806 4.404s.986-8.52-4.356-13.891ZM99.011 39.47c.193.836 1.992 8.337 9.526 11.884 6.846 3.223 14.474-.612 14.474-.612s-1.964-8.342-8.822-11.553c-7.542-3.54-14.416-.111-15.178.28ZM88.665 28.185c.471.722 4.714 7.153 12.998 7.9 7.53.667 13.382-5.562 13.382-5.562s-4.686-7.161-12.216-7.825c-8.28-.738-13.575 4.859-14.164 5.487ZM75.11 21.138c.687.517 6.858 5.1 14.898 2.947 7.303-1.956 10.692-9.823 10.692-9.823s-6.842-5.135-14.14-3.16c-8.045 2.168-11.113 9.242-11.45 10.036ZM74.98 16.825c6.194-4.345 6.709-12.908 6.709-12.908s-8.17-2.456-14.36 1.9c-6.824 4.803-7.307 12.501-7.354 13.378.821.233 8.178 2.421 15.005-2.37Z" fill="#fff"/><path d="M62.018 34.6c-7.501 0-14.695 2.995-19.998 8.328a28.518 28.518 0 0 0-8.284 20.11c0 7.542 2.98 14.775 8.284 20.108a28.203 28.203 0 0 0 19.998 8.33c7.5 0 14.694-2.997 19.998-8.33a28.518 28.518 0 0 0 8.283-20.109c0-7.542-2.98-14.775-8.283-20.108a28.203 28.203 0 0 0-19.998-8.33Zm0 42.723a14.171 14.171 0 0 1-10.046-4.185 14.33 14.33 0 0 1-4.162-10.1c0-3.79 1.497-7.423 4.161-10.103a14.168 14.168 0 0 1 10.047-4.184c3.768 0 7.381 1.505 10.046 4.184a14.327 14.327 0 0 1 4.161 10.102 14.33 14.33 0 0 1-4.162 10.101 14.172 14.172 0 0 1-10.045 4.185Z" fill="#fff"/><path d="M62.017 50.82c-1.595 0-3.174.317-4.648.93a12.14 12.14 0 0 0-3.94 2.65 12.216 12.216 0 0 0-2.633 3.963 12.27 12.27 0 0 0 2.633 13.31 12.112 12.112 0 0 0 8.588 3.577c3.222 0 6.31-1.287 8.589-3.577a12.272 12.272 0 0 0 2.634-13.31 12.22 12.22 0 0 0-2.633-3.964 12.142 12.142 0 0 0-3.94-2.648 12.086 12.086 0 0 0-4.65-.93Zm0 20.701a8.414 8.414 0 0 1-5.966-2.484 8.508 8.508 0 0 1-2.47-6 8.483 8.483 0 0 1 2.47-6 8.43 8.43 0 0 1 2.737-1.839 8.414 8.414 0 0 1 9.195 1.84 8.508 8.508 0 0 1 2.472 6c0 2.25-.89 4.407-2.471 5.999a8.414 8.414 0 0 1-5.966 2.484Z" fill="#fff"/></svg>
